.local/share/icons/Gruvbox-Plus-Dark/actions/22/view-sort.svg

<svg width="22" height="22" version="1.1" xmlns="http://www.w3.org/2000/svg">
  <defs>
    <style id="current-color-scheme" type="text/css">.ColorScheme-Text { color:#ebdbb2; } .ColorScheme-Highlight { color:#458588; }</style>
  </defs>
  <path class="ColorScheme-Text" d="m15 4-3 4h2v3h2v-3h2zm-9.5 1c-0.8284 0-1.5 0.6716-1.5 1.5s0.6716 1.5 1.5 1.5 1.5-0.6716 1.5-1.5-0.6716-1.5-1.5-1.5zm0 4c-0.8284 0-1.5 0.6716-1.5 1.5s0.6716 1.5 1.5 1.5 1.5-0.6716 1.5-1.5-0.6716-1.5-1.5-1.5zm4.5 1v3h-2l3 4 3-4h-2v-3zm-4.5 3c-0.8284 0-1.5 0.6716-1.5 1.5s0.6716 1.5 1.5 1.5 1.5-0.6716 1.5-1.5-0.6716-1.5-1.5-1.5z" fill="currentColor"/>
</svg>

<svg xmlns="http://www.w3.org/2000/svg" width="22" height="22" version="1.1">
 <defs>
  <style id="current-color-scheme" type="text/css">
   .ColorScheme-Text { color:#565656; } .ColorScheme-Highlight { color:#5294e2; }
  </style>
 </defs>
 <path style="fill:currentColor" class="ColorScheme-Text" d="m 14,4 -3,4 h 2 v 3 h 2 V 8 h 2 z M 5.5,5 A 1.5,1.5 0 0 0 4,6.5 1.5,1.5 0 0 0 5.5,8 1.5,1.5 0 0 0 7,6.5 1.5,1.5 0 0 0 5.5,5 Z m 0,4 A 1.5,1.5 0 0 0 4,10.5 1.5,1.5 0 0 0 5.5,12 1.5,1.5 0 0 0 7,10.5 1.5,1.5 0 0 0 5.5,9 Z m 4.5,1 v 3 H 8 l 3,4 3,-4 H 12 V 10 Z M 5.5,13 A 1.5,1.5 0 0 0 4,14.5 1.5,1.5 0 0 0 5.5,16 1.5,1.5 0 0 0 7,14.5 1.5,1.5 0 0 0 5.5,13 Z"/>
</svg>
